X: 3559
T: Big Reel Of Ballynacally, The
R: reel
M: 4/4
K: Gmajor
DG~G2 A2dc|AG~G2 AGFA|DG~G2 A2dc|AdGE =F2EF|
DG~G2 A2dc|AG~G2 AGFA|d^cde ~f3d|1 cAFG AG~G2:|2 cAFG AGBd||
|:g2dg ~g2dg|~g2ag fd~d2|g2fg abag|fdcA BGBd|
g2fg a=ffe|=fgfd e2ce|~d3e ~f3d|1 cAFG AGBd:|2 cAFG AG~G2||

